sky-news/img/icons/Admin-Flat.svg

<svg enable-background="new 0 0 200 200" viewBox="0 0 200 200" xmlns="http://www.w3.org/2000/svg"><g fill="#0072ce"><path d="m153.4 27h-11.4l-.2 13.2h-83.6l-.2-13.2h-11.2c-7 0-12.7 5.7-12.7 12.7v147.3c0 7 5.7 12.7 12.7 12.7h106.4c7 0 12.7-5.7 12.7-12.7v-147.4c.2-7-5.5-12.6-12.5-12.6zm-5.3 95.6h-95.8c-3.7 0-6.8-2.9-6.8-6.8s2.9-6.8 6.8-6.8h95.8c3.7 0 6.8 2.9 6.8 6.8s-3.2 6.8-6.8 6.8zm0-25.2h-95.8c-3.7 0-6.8-2.9-6.8-6.8s2.9-6.8 6.8-6.8h95.8c3.7 0 6.8 2.9 6.8 6.8s-3.2 6.8-6.8 6.8zm0-25.5h-95.8c-3.7 0-6.8-2.9-6.8-6.8s2.9-6.8 6.8-6.8h95.8c3.7 0 6.8 2.9 6.8 6.8s-3.2 6.8-6.8 6.8z"/><path d="m134.7 15.2h-17.4c-1.1 0-1.8-.7-2-1.8-.9-7.5-7.3-13.4-15-13.4s-14.1 5.9-15 13.4c-.2.9-.9 1.8-2 1.8h-17.6c-1.1 0-2 .9-2 2v13.8c0 1.1.9 2 2 2h68.8c1.1 0 2-.9 2-2v-13.8c.2-1.1-.7-2-1.8-2zm-34.5 5c-3.1 0-5.5-2.6-5.5-5.5 0-3.1 2.6-5.5 5.5-5.5s5.5 2.6 5.5 5.5c0 3.1-2.4 5.5-5.5 5.5z"/></g></svg>

<?xml version="1.0" encoding="utf-8"?>
<!-- Generator: Adobe Illustrator 18.1.1, SVG Export Plug-In . SVG Version: 6.00 Build 0)  -->
<svg version="1.1" id="Layer_1" xmlns="http://www.w3.org/2000/svg" xmlns:xlink="http://www.w3.org/1999/xlink" x="0px" y="0px"
	 viewBox="0 0 200 200" enable-background="new 0 0 200 200" xml:space="preserve">
<g>
	<path fill="#0072CE" d="M153.4,27H142l-0.2,13.2H58.2L58,27H46.8c-7,0-12.7,5.7-12.7,12.7V187c0,7,5.7,12.7,12.7,12.7h106.4
		c7,0,12.7-5.7,12.7-12.7V39.6C166.1,32.6,160.4,27,153.4,27z M148.1,122.6H52.3c-3.7,0-6.8-2.9-6.8-6.8s2.9-6.8,6.8-6.8h95.8
		c3.7,0,6.8,2.9,6.8,6.8S151.7,122.6,148.1,122.6z M148.1,97.4H52.3c-3.7,0-6.8-2.9-6.8-6.8s2.9-6.8,6.8-6.8h95.8
		c3.7,0,6.8,2.9,6.8,6.8S151.7,97.4,148.1,97.4z M148.1,71.9H52.3c-3.7,0-6.8-2.9-6.8-6.8s2.9-6.8,6.8-6.8h95.8
		c3.7,0,6.8,2.9,6.8,6.8S151.7,71.9,148.1,71.9z"/>
	<path fill="#0072CE" d="M134.7,15.2h-17.4c-1.1,0-1.8-0.7-2-1.8c-0.9-7.5-7.3-13.4-15-13.4s-14.1,5.9-15,13.4
		c-0.2,0.9-0.9,1.8-2,1.8H65.7c-1.1,0-2,0.9-2,2V31c0,1.1,0.9,2,2,2h68.8c1.1,0,2-0.9,2-2V17.2C136.7,16.1,135.8,15.2,134.7,15.2z
		 M100.2,20.2c-3.1,0-5.5-2.6-5.5-5.5c0-3.1,2.6-5.5,5.5-5.5s5.5,2.6,5.5,5.5C105.7,17.8,103.3,20.2,100.2,20.2z"/>
</g>
</svg>
